src/assets/filled/Google.svg

<svg width="24" height="24" viewBox="0 0 24 24"  xmlns="http://www.w3.org/2000/svg">
<path d="M5.93989 16.7693L4.27992 19.5893C4.15992 19.7993 3.84986 19.7993 3.71986 19.5893L2.02992 16.7693C1.89992 16.5493 2.05989 16.2793 2.30989 16.2793H5.65986C5.90986 16.2793 6.05989 16.5593 5.93989 16.7693Z" />
<path d="M11.6899 8.4104L7.73991 14.8804C7.64991 15.0304 7.48992 15.1104 7.31992 15.1104H2.24992C1.86992 15.1104 1.62992 14.7104 1.81992 14.3904L8.27995 3.73041C8.46995 3.42041 8.93992 3.41041 9.12992 3.73041L11.6899 7.9404C11.7799 8.0804 11.7799 8.2604 11.6899 8.4104Z" />
<path d="M13.72 14.4892H10.24C10.04 14.4892 9.91006 14.2692 10.0101 14.0892L11.7501 11.1392C11.8501 10.9692 12.1001 10.9692 12.2001 11.1392L13.9401 14.0892C14.0501 14.2692 13.92 14.4892 13.72 14.4892Z" />
<path d="M13.6599 3.39999L12.21 5.87C12.11 6.04 11.85 6.04 11.75 5.87L10.2999 3.39999C10.1999 3.21999 10.32 3 10.53 3H13.43C13.64 3 13.7599 3.21999 13.6599 3.39999Z" />
<path d="M22.17 14.3704C22.37 14.7004 22.12 15.1204 21.74 15.1204H16.87C16.7 15.1204 16.55 15.0304 16.46 14.8904L12.65 8.42041C12.56 8.27041 12.56 8.0904 12.65 7.9404L15.12 3.73041C15.3 3.42041 15.76 3.41041 15.94 3.73041C17.16 5.84041 20.89 12.1804 22.17 14.3704Z" />
<path d="M21.93 16.7695C21.38 17.6995 20.79 18.6995 20.25 19.6095C20.12 19.8295 19.81 19.8195 19.68 19.5995L18.02 16.7695C17.89 16.5495 18.05 16.2695 18.31 16.2695H21.64C21.9 16.2795 22.06 16.5495 21.93 16.7695Z" />
<path d="M18.02 20.9994H5.93994C5.57994 20.9994 5.35992 20.6094 5.53992 20.2994L7.86994 16.3394C7.94994 16.1994 8.09996 16.1094 8.26996 16.1094H15.6899C15.8499 16.1094 16.01 16.1994 16.09 16.3394L18.4199 20.2994C18.5999 20.6094 18.38 20.9994 18.02 20.9994Z" />
</svg>

<?xml version="1.0" encoding="UTF-8"?>
<svg width="24" height="24" viewBox="0 0 24 24" xmlns="http://www.w3.org/2000/svg">
 <path d="m5.9399 16.769-1.66 2.82c-0.12 0.21-0.43006 0.21-0.56006 0l-1.6899-2.82c-0.13-0.22 0.02997-0.49 0.27997-0.49h3.35c0.25 0 0.40003 0.28 0.28003 0.49z"/>
 <path d="m11.69 8.4104-3.95 6.47c-0.09 0.15-0.24999 0.23-0.41999 0.23h-5.07c-0.38 0-0.62-0.4-0.43-0.72l6.46-10.66c0.19-0.31 0.65997-0.32 0.84997 0l2.56 4.21c0.09 0.14 0.09 0.32 0 0.47z"/>
 <path d="m13.72 14.489h-3.48c-0.2 0-0.32994-0.22-0.2299-0.4l1.74-2.95c0.1-0.17 0.35-0.17 0.45 0l1.74 2.95c0.11 0.18-0.0201 0.4-0.2201 0.4z"/>
 <path d="m13.66 3.4-1.4499 2.47c-0.1 0.17-0.36 0.17-0.46 0l-1.4501-2.47c-0.1-0.18 0.0201-0.39999 0.2301-0.39999h2.9c0.21 0 0.3299 0.21999 0.2299 0.39999z"/>
 <path d="m22.17 14.37c0.2 0.33-0.05 0.75-0.43 0.75h-4.87c-0.17 0-0.32-0.09-0.41-0.23l-3.81-6.47c-0.09-0.15-0.09-0.33001 0-0.48001l2.47-4.21c0.18-0.31 0.64-0.32 0.82 0 1.22 2.11 4.95 8.45 6.23 10.64z"/>
 <path d="m21.93 16.77c-0.55 0.93-1.14 1.93-1.68 2.84-0.13 0.22-0.44 0.21-0.57-0.01l-1.66-2.83c-0.13-0.22 0.03-0.5 0.29-0.5h3.33c0.26 0.01 0.42 0.28 0.29 0.5z"/>
 <path d="m18.02 20.999h-12.08c-0.36 0-0.58002-0.39-0.40002-0.7l2.33-3.96c0.08-0.14 0.23002-0.23 0.40002-0.23h7.4199c0.16 0 0.3201 0.09 0.4001 0.23l2.3299 3.96c0.18 0.31-0.0399 0.7-0.3999 0.7z"/>
</svg>
